src/images/logo.svg

<svg width="38" height="38" viewBox="0 0 38 38" fill="none"
  xmlns="http://www.w3.org/2000/svg">
  <path d="M0 19C0 8.50659 8.50659 0 19 0C29.4934 0 38 8.50659 38 19C38 29.4934 29.4934 38 19 38C8.50659 38 0 29.4934 0 19Z" fill="#3456F3"/>
  <path d="M26.3752 11H11.6248C10.1751 11 9 12.212 9 13.7061V21.203C9 21.3421 9.01022 21.4788 9.03025 21.6124C9.00974 21.8121 9 22.014 9 22.2178C9 26.5151 13.4769 30 18.9999 30C24.5229 30 29 26.5151 29 22.2178C29 22.0139 28.9893 21.8121 28.9697 21.6124C28.9893 21.4789 29 21.3421 29 21.203V13.7062C29 12.2116 27.8236 11 26.3752 11Z" fill="white"/>
</svg>

<svg width="38" height="38" fill="none" xmlns="http://www.w3.org/2000/svg"><path d="M0 19C0 8.507 8.507 0 19 0s19 8.507 19 19-8.507 19-19 19S0 29.493 0 19z" fill="#3456F3"/><path d="M26.375 11h-14.75C10.175 11 9 12.212 9 13.706v7.497c0 .14.01.276.03.41-.02.2-.03.401-.03.605C9 26.515 13.477 30 19 30s10-3.485 10-7.782c0-.204-.01-.406-.03-.606.02-.133.03-.27.03-.409v-7.497C29 12.212 27.824 11 26.375 11z" fill="#fff"/></svg>
